X: 40476
T: Tom's Tavern
R: polka
M: 2/4
K: Eminor
|:D>E G (A|A) G AB|D>E G (A|A) G E2|
D>E G (A|A) G Bd|ef/e/ dB|AG E2:|
|:e>f gf|ed ed|e>f gf|ed B2|
e>f gf|ed e2|dB BA|GE ED:|

